X: 595
T: Ting fang
%%abc-version 2.0
%%abcx-abcm2ps-target-version 5.9.1 (29 Sep 2008)
%%abc-creator hum2abc beta
%%abcx-conversion-date 2013/10/02 07:52:30
%%abc-edited-by Helmut Schaffrath
%%humdrum-veritas 79775481
%%humdrum-veritas-data 1787921638
%%continueall 1
%%barnumbers 0
L: 1/8
M: 4/4
K: A
E2E F E F [I:setbarnb 1]| 
E2>F2E4 | 
B e c BA4 | 
ee2c B c A F | 
E2>F2E4 | 
E2E CB,2B,2 | 
B e c BA4 | 
e e e c B e A F | 
E2>F2E4 | 
E2E CB,2E B, | 
B c A BE2F E | 
CC2E C E C A, | 
B,2>C2B,4 | 
B e c BA4 | 
ee2c B e A F | 
E2>F2E4 |]  



